svgs/regular/loader.svg

<svg xmlns="http://www.w3.org/2000/svg" viewBox="0 0 512 512"><!-- Font Awesome Pro 6.0.0-alpha2 by @fontawesome - https://fontawesome.com License - https://fontawesome.com/license (Commercial License) --><path d="M256 0C242.75 0 232 10.75 232 24V104C232 117.25 242.75 128 256 128S280 117.25 280 104V24C280 10.75 269.25 0 256 0ZM256 384C242.75 384 232 394.75 232 408V488C232 501.25 242.75 512 256 512S280 501.25 280 488V408C280 394.75 269.25 384 256 384ZM488 232H408C394.75 232 384 242.75 384 256S394.75 280 408 280H488C501.25 280 512 269.25 512 256S501.25 232 488 232ZM128 256C128 242.75 117.25 232 104 232H24C10.75 232 0 242.75 0 256S10.75 280 24 280H104C117.25 280 128 269.25 128 256ZM363.469 172.516C369.594 172.516 375.75 170.172 380.437 165.484L437.031 108.922C446.406 99.562 446.406 84.359 437.031 74.984C427.687 65.641 412.5 65.578 403.094 74.984L346.5 131.547C337.125 140.906 337.125 156.109 346.5 165.484C351.188 170.172 357.312 172.516 363.469 172.516ZM131.562 346.516L74.969 403.078C65.594 412.438 65.594 427.641 74.969 437.016C79.656 441.703 85.781 444.047 91.937 444.047C98.062 444.047 104.219 441.703 108.906 437.016L165.5 380.453C174.875 371.094 174.875 355.891 165.5 346.516C156.156 337.156 140.969 337.125 131.562 346.516ZM380.438 346.516C371.031 337.125 355.844 337.156 346.5 346.516C337.125 355.891 337.125 371.094 346.5 380.453L403.094 437.016C407.781 441.703 413.938 444.047 420.062 444.047C426.219 444.047 432.344 441.703 437.031 437.016C446.406 427.641 446.406 412.438 437.031 403.078L380.438 346.516ZM108.906 74.984C99.531 65.578 84.344 65.641 74.969 74.984C65.594 84.359 65.594 99.562 74.969 108.922L131.562 165.484C136.25 170.172 142.406 172.516 148.531 172.516C154.687 172.516 160.812 170.172 165.5 165.484C174.875 156.109 174.875 140.906 165.5 131.547L108.906 74.984Z"/></svg>

<svg xmlns="http://www.w3.org/2000/svg" viewBox="0 0 512 512"><!--! Font Awesome Pro 6.4.0 by @fontawesome - https://fontawesome.com License - https://fontawesome.com/license (Commercial License) Copyright 2023 Fonticons, Inc. --><path d="M280 24c0-13.3-10.7-24-24-24s-24 10.7-24 24v80c0 13.3 10.7 24 24 24s24-10.7 24-24V24zm0 384c0-13.3-10.7-24-24-24s-24 10.7-24 24v80c0 13.3 10.7 24 24 24s24-10.7 24-24V408zM0 256c0 13.3 10.7 24 24 24h80c13.3 0 24-10.7 24-24s-10.7-24-24-24H24c-13.3 0-24 10.7-24 24zm408-24c-13.3 0-24 10.7-24 24s10.7 24 24 24h80c13.3 0 24-10.7 24-24s-10.7-24-24-24H408zM437 75c-9.4-9.4-24.6-9.4-33.9 0l-56.6 56.6c-9.4 9.4-9.4 24.6 0 33.9s24.6 9.4 33.9 0L437 108.9c9.4-9.4 9.4-24.6 0-33.9zM165.5 380.4c9.4-9.4 9.4-24.6 0-33.9s-24.6-9.4-33.9 0L75 403.1c-9.4 9.4-9.4 24.6 0 33.9s24.6 9.4 33.9 0l56.6-56.6zM75 75c-9.4 9.4-9.4 24.6 0 33.9l56.6 56.6c9.4 9.4 24.6 9.4 33.9 0s9.4-24.6 0-33.9L108.9 75c-9.4-9.4-24.6-9.4-33.9 0zM380.5 346.5c-9.4-9.4-24.6-9.4-33.9 0s-9.4 24.6 0 33.9L403.1 437c9.4 9.4 24.6 9.4 33.9 0s9.4-24.6 0-33.9l-56.6-56.6z"/></svg>
